X: 1
T: Gigue  deux
M: 4/4
L: 1/8
R: reel
K: Fmin
E2 |:\
M:4/4
Azce aecd | efed (3cdc BE | AzEA AAcA |
M:6/4
eAcA GABc BGEG |\
M:4/4
Azce aecd | efed (3cdc BE | AzEE EFAB |
[1\
M:6/4
cAdc BGBG AzEA :|[2\
M:6/4
cAdc BGBG AzEE |:\
M:4/4
EFAB cAdc |
BGEG B2B2 | EFAB cAdc |[1 BGBG AzEE :|[2 BGBG AzEA |]
